X: 11
T: Paddy Fahey's
R: reel
M: 4/4
L: 1/8
K: Dmin
|: D2A,D ~F3 G | AdcA d2de | ^fedf edcA | dcAG FDEC |
D2A,D ~F3 G | AdcA d2de | ^fedf edcA | dcAG =FD D2 :|
|: Ad (3ddd ad^fd | ~c3G E=FGB | Ad (3ddd da^fd | ~c3d edcA |
a2ga AdcA | dcAG FDCE | D2A,D ~F3G |1 AdcA d3c :|2 AdcA d4 ||

composer: Paddy Fahey
